brandFactory_export/3.Masa/Cerebro_3Masa.svg

<?xml version="1.0" encoding="UTF-8"?>
<svg width="24px" height="24px" viewBox="0 0 24 24" version="1.1" xmlns="http://www.w3.org/2000/svg" xmlns:xlink="http://www.w3.org/1999/xlink">
    <title>3.Masa/Cerebro_3Masa</title>
    <g id="Symbols" stroke="none" stroke-width="1" fill="none" fill-rule="evenodd">
        <g id="3.Masa/Cerebro_3Masa" fill="#5CB615" fill-rule="nonzero">
            <path d="M11.1008403,3.12605042 L11.1008403,20.497479 C11.1008403,20.7462185 11.107563,21.5394958 11.1042017,21.8554622 C11.010084,22.8773109 10.3310924,23.6235294 8.99327731,23.6235294 C7.80672269,23.6235294 7.00336134,23.1462185 6.55294118,22.2487395 C6.85210084,22.1579832 7.1512605,22.0201681 7.45042017,21.8285714 C8.08571429,21.4252101 8.50588235,20.9344538 8.70420168,20.3697479 C8.81176471,20.0571429 8.64033613,19.7176471 8.3210084,19.610084 C8.00168067,19.5058824 7.65210084,19.6705882 7.54453782,19.9831933 C7.43697479,20.292437 7.18151261,20.5747899 6.78151261,20.8302521 C6.40504202,21.0722689 6.0487395,21.2168067 5.72605042,21.1764706 C5.70252101,21.1798319 5.6789916,21.189916 5.65546218,21.1932773 C5.63529412,21.189916 5.61176471,21.1831933 5.59159664,21.1831933 C1.3394958,21.1831933 1.00672269,17.1697479 1.00672269,15.9394958 C1.00672269,15.4521008 1.07731092,13.892437 1.84705882,12.605042 C2.18991597,12.7630252 2.5697479,12.8806723 3.02016807,12.9176471 C3.07058824,12.9210084 3.11428571,12.9210084 3.16134454,12.9243697 C3.14453782,13.7579832 3.69579832,14.3596639 4.38151261,14.6218487 C4.38487395,14.6218487 4.50252101,14.6655462 4.50588235,14.6655462 C4.5697479,14.6890756 4.63361345,14.6991597 4.6907563,14.6991597 C4.92941176,14.6991597 5.13445378,14.5378151 5.22857143,14.292437 C5.34621849,13.9865546 5.13445378,13.6235294 4.82184874,13.5058824 C4.32436975,13.3142857 4.34453782,12.9747899 4.40504202,12.7596639 C5.50420168,12.3764706 6.02184874,11.394958 6.11596639,10.4806723 L6.13277311,10.2756303 C6.15966387,9.94621849 5.90756303,9.6605042 5.57142857,9.63361345 C5.23865546,9.60336134 4.9394958,9.85210084 4.91260504,10.1815126 L4.89579832,10.3697479 C4.82521008,11.0521008 4.4789916,11.8487395 3.12436975,11.7277311 C2.66722689,11.6907563 2.32436975,11.5630252 2.08235294,11.3647059 C1.0907563,10.0235294 1.00672269,8.21512605 1.00672269,7.68403361 C1.00672269,6.45378151 1.33613445,2.44033613 5.69579832,2.44033613 L5.69915966,2.44033613 C6.87226891,2.41680672 7.27563025,3.34789916 7.41680672,3.75462185 L7.48739496,3.95966387 C7.56806723,4.21512605 7.81008403,4.37983193 8.07226891,4.37983193 C8.13277311,4.37983193 8.19327731,4.3697479 8.25378151,4.35294118 C8.57647059,4.25546218 8.75798319,3.91932773 8.65714286,3.60672269 L8.57310924,3.36134454 C8.27731092,2.53109244 7.60168067,1.67731092 6.55294118,1.37142857 C7.00672269,0.480672269 7.80672269,0.00672268908 8.98991597,0.00672268908 C10.4521008,0.00672268908 11.0773109,1.13613445 11.0941176,1.84201681 C11.097479,2.10084034 11.087395,2.9210084 11.1008403,3.12605042 Z M20.5462185,11.8957983 C21.0033613,11.9327731 21.3495798,12.0605042 21.5882353,12.2588235 C22.5798319,13.5966387 22.6638655,15.405042 22.6638655,15.9394958 C22.6638655,17.1697479 22.3344538,21.1831933 17.9747899,21.1831933 L17.9714286,21.1831933 C16.7983193,21.2067227 16.394958,20.2756303 16.2504202,19.8722689 L16.1798319,19.6672269 C16.0991597,19.4117647 15.8571429,19.2470588 15.594958,19.2470588 C15.5344538,19.2470588 15.4739496,19.2571429 15.4134454,19.2739496 C15.0907563,19.3714286 14.9092437,19.707563 15.010084,20.0201681 L15.0941176,20.2655462 C15.3932773,21.0957983 16.0655462,21.9462185 17.1142857,22.2521008 C16.6638655,23.1428571 15.8605042,23.6201681 14.6773109,23.6201681 C13.2151261,23.6201681 12.6134454,22.7697479 12.5730983,21.7848739 C12.5764706,21.5193277 12.5831933,20.6957983 12.5730983,20.4907563 L12.5730983,3.12605042 L12.5730983,1.78823529 C12.5697479,0.897478992 13.3428571,0 14.6773109,0 C15.8638655,0 16.6672269,0.477310924 17.1176471,1.37478992 C16.8184874,1.46554622 16.5193277,1.60336134 16.2201681,1.79495798 C15.5848739,2.19831933 15.1647059,2.68907563 14.9663866,3.25714286 C14.8588235,3.5697479 15.0302521,3.9092437 15.3495798,4.01344538 C15.6689076,4.11764706 16.0184874,3.95294118 16.1260504,3.64033613 C16.2336134,3.33109244 16.4890756,3.0487395 16.8890756,2.79327731 C17.2655462,2.5512605 17.6184874,2.41008403 17.9411765,2.44705882 C17.9647059,2.44369748 17.9882353,2.43361345 18.0117647,2.4302521 C18.0352941,2.4302521 18.0554622,2.44033613 18.0756303,2.44033613 C22.3277311,2.44033613 22.6605042,6.45378151 22.6605042,7.68739496 C22.6605042,8.17478992 22.589916,9.73445378 21.8201681,11.0218487 C21.4773109,10.8638655 21.097479,10.7462185 20.6470588,10.7092437 C20.6,10.7058824 20.5529412,10.7058824 20.5058824,10.702521 C20.5226891,9.86890756 19.9714286,9.26722689 19.2823529,9.00504202 C19.2789916,9.00504202 19.1613445,8.96134454 19.1579832,8.96134454 C19.0941176,8.93781513 19.0302521,8.92773109 18.9731092,8.92773109 C18.7344538,8.92773109 18.5294118,9.08907563 18.4352941,9.33445378 C18.3176471,9.64033613 18.5294118,10 18.8420168,10.1210084 C19.3428571,10.312605 19.3226891,10.6487395 19.2588235,10.8672269 C18.1596639,11.2504202 17.6420168,12.2319328 17.5478992,13.1462185 L17.5310924,13.3512605 C17.5042017,13.6806723 17.7563025,13.9663866 18.092437,13.9932773 C18.4252101,14.0235294 18.7243697,13.7747899 18.7512605,13.4453782 L18.7680672,13.2605042 C18.8420168,12.5747899 19.1915966,11.7747899 20.5462185,11.8957983 Z" id="Cerebro_3Masa"></path>
        </g>
    </g>
</svg>

<svg width="24" height="24" viewBox="0 0 24 24" xmlns="http://www.w3.org/2000/svg"><path d="M11.1 3.126v17.371c0 .25.008 1.042.004 1.358-.094 1.022-.773 1.769-2.11 1.769-1.187 0-1.99-.478-2.441-1.375.3-.091.598-.229.897-.42.636-.404 1.056-.895 1.254-1.46a.598.598 0 00-.383-.759.617.617 0 00-.776.373c-.108.31-.363.592-.763.847-.377.242-.733.387-1.056.346-.023.004-.047.014-.07.017-.02-.003-.044-.01-.064-.01-4.253 0-4.585-4.013-4.585-5.244 0-.487.07-2.047.84-3.334.343.158.723.276 1.173.313l.141.006c-.016.834.535 1.436 1.22 1.698.004 0 .122.044.125.044a.54.54 0 00.185.033c.238 0 .443-.161.538-.407.117-.305-.095-.668-.407-.786-.498-.192-.477-.531-.417-.746 1.1-.384 1.617-1.365 1.711-2.28l.017-.204a.602.602 0 00-.562-.642.607.607 0 00-.658.548l-.017.188c-.07.682-.417 1.479-1.772 1.358-.457-.037-.8-.165-1.042-.363-.991-1.341-1.075-3.15-1.075-3.681 0-1.23.33-5.244 4.689-5.244h.003c1.173-.023 1.577.908 1.718 1.315l.07.205a.61.61 0 00.767.393.594.594 0 00.403-.746l-.084-.246c-.296-.83-.971-1.684-2.02-1.99C7.007.481 7.807.007 8.99.007c1.462 0 2.087 1.13 2.104 1.835.003.259-.007 1.079.007 1.284zm9.446 8.77c.457.037.804.165 1.042.363.992 1.338 1.076 3.146 1.076 3.68 0 1.23-.33 5.244-4.69 5.244h-.003c-1.173.024-1.576-.907-1.72-1.31l-.071-.206a.61.61 0 00-.767-.393.594.594 0 00-.403.746l.084.246c.3.83.972 1.68 2.02 1.986-.45.89-1.253 1.368-2.437 1.368-1.462 0-2.064-.85-2.104-1.835.003-.266.01-1.09 0-1.294V1.788C12.57.898 13.343 0 14.677 0c1.187 0 1.99.477 2.44 1.375-.299.09-.598.228-.897.42-.635.403-1.055.894-1.254 1.462a.593.593 0 00.384.756c.319.105.668-.06.776-.373.108-.309.363-.591.763-.847.377-.242.73-.383 1.052-.346.024-.003.047-.013.07-.017.024 0 .044.01.065.01 4.252 0 4.585 4.014 4.585 5.247 0 .488-.071 2.047-.84 3.335a3.417 3.417 0 00-1.174-.313l-.141-.006c.017-.834-.535-1.436-1.224-1.698-.003 0-.12-.044-.124-.044a.54.54 0 00-.185-.033c-.239 0-.444.161-.538.406-.117.306.094.666.407.787.5.192.48.528.417.746-1.1.383-1.617 1.365-1.711 2.28l-.017.204a.602.602 0 00.561.642.607.607 0 00.66-.548l.016-.184c.074-.686.424-1.486 1.778-1.365z" fill="#5CB615" fill-rule="nonzero"/></svg>
